X:1
T:Title
%%score 1 2
L:1/8
Q:1/4=106
M:4/4
K:Bb
V:1 treble nm="Grand Piano, Soprano"
V:2 bass nm="Choir Pad, Pasadena, 87.87 D"
V:1
 [DF]2 [B,D]2 [DB]3 [DF] | [EA]2 [EG]2 [DF]2 [B,D]2 | [DF]2 [FB]2 [=EB][EG][EA][EB] | [Ec]6 z2 | %4
w: By~Daniel~Brink~Towner,~1899 * * *||||
 [DF]2 [B,D]2 [DB]3 [DF] | [EA]2 [EG]2 [DF]2 [B,D]2 | [DF]2 [FB]2 [EB][EA][EG][EA] | [DB]6 z2 | %8
w: ||||
 [Ac]2 [FA]2 [EF]4 | [DB]2 [DB][DF] [EG]2 [DF]2 | [EA]2 [Ec]2 [=Ec]3 [EA] | [=EB]2 [EG]2 F2 _E2 | %12
w: ||||
 [DF]2 [B,D]2 [DB]3 [DF] | [EA]2 [EG]2 [DF]2 [B,D]2 | [DF]2 [FB]2 [EB][EA][EG][EA] | [DB]8 |] %16
w: ||||
V:2
 [B,,B,]2 [B,,F,]2 [B,,F,]3 [B,,B,] | [F,C]2 [F,A,]2 [B,,B,]2 [B,,B,]2 | %2
 [B,,B,]2 [D,B,]2 [C,G,][C,C][C,C][C,G,] | [F,A,]6 z2 | [B,,B,]2 [B,,F,]2 [B,,F,]3 [B,,B,] | %5
 [F,C]2 [F,A,]2 [B,,B,]2 [B,,B,]2 | [B,,B,]2 [D,B,]2 [F,C][F,C][F,A,]F, | [B,,F,]6 z2 | %8
 F,2 [F,C]2 [F,A,]4 | [B,,F,]2 [B,,F,][B,,B,] [B,,B,]2 [B,,B,]2 | [F,C]2 [F,A,]2 [C,G,]3 [C,C] | %11
 [C,C]2 [C,B,]2 [F,A,]4 | [B,,B,]2 [B,,F,]2 [B,,F,]3 [B,,B,] | [F,C]2 [F,A,]2 [B,,B,]2 [B,,B,]2 | %14
 [B,,B,]2 [D,B,]2 [F,C][F,C][F,A,]F, | [B,,F,]8 |] %16

